dist/images/logo-abbott-black-mobile.svg

<svg width="83" height="21" viewBox="0 0 83 21" fill="none" xmlns="http://www.w3.org/2000/svg">
<path d="M3.41143 6.84779C1.52705 6.84779 0 8.37484 0 10.2587V17.1321C0 19.017 1.52705 20.5441 3.41143 20.5441H22.2686C24.153 20.5441 25.6799 19.017 25.6799 17.1321V3.4107C25.6799 1.52705 24.153 0 22.2686 0H0V3.42399H21.1499C21.761 3.42399 22.2557 3.91892 22.2557 4.52982V16.0139C22.2557 16.6243 21.761 17.1203 21.1499 17.1203H4.52946C3.91929 17.1203 3.42399 16.6243 3.42399 16.0139V11.3772C3.42399 10.7671 3.91893 10.2716 4.52946 10.2716H18.8316V6.84779H3.41143Z" fill="black"/>
<path d="M69.9185 11.6497C69.9185 14.2203 68.1197 15.6477 65.6633 15.6477C63.2023 15.6477 61.407 14.2203 61.407 11.6497C61.407 9.08061 63.2023 7.65094 65.6633 7.65094C68.1197 7.65094 69.9185 9.08061 69.9185 11.6497ZM52.3511 15.4112H54.202L54.6786 14.4112C55.2526 15.2947 56.1777 15.6477 57.2159 15.6477C59.6915 15.6477 60.6135 13.7697 60.6135 11.6489C60.6135 9.53376 59.6915 7.65094 57.2159 7.65094C56.4773 7.65094 55.7011 8.08428 55.0918 8.75896V4.76245H51.0001V6.0468H51.7587C52.2367 6.0468 52.3511 6.28514 52.3511 6.73904V15.4112ZM43.096 15.4112H44.9469L45.4235 14.4112C45.9983 15.2947 46.9234 15.6477 47.9612 15.6477C50.4372 15.6477 51.3592 13.7697 51.3592 11.6489C51.3592 9.53376 50.4372 7.65094 47.9612 7.65094C47.2238 7.65094 46.4468 8.08428 45.836 8.75896V4.76245H41.745V6.0468H42.5036C42.9813 6.0468 43.096 6.28514 43.096 6.73904V15.4112ZM35.3784 7.15184H35.4114L36.597 10.6097H34.2035L35.3784 7.15184ZM34.3892 4.76245L31.6355 12.7898C31.3009 13.7697 31.0737 13.9965 30.4967 13.9965H29.9346V15.4112H34.7829V13.9965H34.3087C33.8609 13.9965 33.2815 13.9472 33.2815 13.6875C33.2815 13.4623 33.3483 13.2243 33.5282 12.6647L33.7285 12.0214H37.0935L37.4385 13.175C37.5044 13.4167 37.5213 13.5934 37.5213 13.7578C37.5213 13.9322 37.1096 13.9965 36.6139 13.9965H36.1205V15.4112H42.1395V13.9965H41.5793C41.0053 13.9965 40.7731 13.7697 40.4458 12.7898L37.6894 4.76245H34.3892ZM48.4424 11.6489C48.4424 13.2897 48.0664 14.2681 47.1382 14.2681C46.2154 14.2681 45.836 13.2897 45.836 11.6489C45.836 10.0127 46.2154 9.03428 47.1382 9.03428C48.0664 9.03428 48.4424 10.0127 48.4424 11.6489ZM65.6633 8.93641C64.6742 8.93641 64.3277 9.75491 64.3277 11.6497C64.3277 13.5441 64.6742 14.3633 65.6633 14.3633C66.6513 14.3633 66.9963 13.5441 66.9963 11.6497C66.9963 9.75491 66.6513 8.93641 65.6633 8.93641ZM81.6787 11.7801V13.0315C81.6787 13.7697 81.5148 14.2068 80.8879 14.2068C80.5092 14.2068 80.3292 13.9315 80.3292 13.5934V9.17774H82.354V7.89264H80.3292V4.90889H78.6935C78.5593 6.23994 78.1318 7.89264 76.4827 7.89264H73.91V4.90889H72.279C72.1458 6.23994 71.7157 7.89264 70.0689 7.89264V9.17774H71.1732V13.2071C71.1732 14.8456 72.1128 15.6477 73.8087 15.6477C75.7928 15.6477 76.579 14.7829 76.579 13.2071V11.7801H75.2649V13.0315C75.2649 13.7697 75.0983 14.2068 74.4733 14.2068C74.09 14.2068 73.91 13.9315 73.91 13.5934V9.17774H77.5927V13.2071C77.5927 14.8456 78.5289 15.6477 80.2287 15.6477C82.2062 15.6477 83.0001 14.7829 83.0001 13.2071V11.7801H81.6787ZM57.6967 11.6489C57.6967 13.2897 57.3214 14.2681 56.3921 14.2681C55.4697 14.2681 55.0918 13.2897 55.0918 11.6489C55.0918 10.0127 55.4697 9.03428 56.3921 9.03428C57.3214 9.03428 57.6967 10.0127 57.6967 11.6489Z" fill="black"/>
</svg>

<svg width="83" height="21" viewBox="0 0 83 21" fill="none" xmlns="http://www.w3.org/2000/svg"><path d="M3.411 6.848A3.41 3.41 0 000 10.258v6.874a3.411 3.411 0 003.411 3.412H22.27a3.411 3.411 0 003.41-3.412V3.411A3.41 3.41 0 0022.27 0H0v3.424h21.15c.611 0 1.106.495 1.106 1.106v11.484c0 .61-.495 1.106-1.106 1.106H4.53c-.61 0-1.106-.496-1.106-1.106v-4.637c0-.61.495-1.105 1.105-1.105h14.303V6.848H3.412zm66.507 4.802c0 2.57-1.798 3.998-4.255 3.998-2.46 0-4.256-1.428-4.256-3.998 0-2.57 1.795-4 4.256-4 2.457 0 4.255 1.43 4.255 4zm-17.567 3.76h1.851l.477-1c.574.884 1.499 1.237 2.537 1.237 2.475 0 3.398-1.878 3.398-4 0-2.114-.922-3.997-3.398-3.997-.739 0-1.515.433-2.124 1.108V4.762H51v1.285h.759c.478 0 .592.238.592.692v8.672zm-9.255 0h1.85l.477-1c.575.884 1.5 1.237 2.538 1.237 2.476 0 3.398-1.878 3.398-4 0-2.114-.922-3.997-3.398-3.997-.737 0-1.514.433-2.125 1.108V4.762h-4.091v1.285h.759c.477 0 .592.238.592.692v8.672zm-7.718-8.26h.033l1.186 3.459h-2.394l1.175-3.458zm-.989-2.389l-2.754 8.028c-.334.98-.561 1.207-1.138 1.207h-.562v1.414h4.848v-1.415h-.474c-.448 0-1.027-.049-1.027-.309 0-.225.066-.463.246-1.022l.2-.644h3.365l.345 1.154c.066.242.083.418.083.583 0 .174-.411.239-.907.239h-.493v1.414h6.018v-1.415h-.56c-.574 0-.806-.226-1.133-1.206l-2.757-8.028h-3.3zm14.053 6.887c0 1.64-.376 2.62-1.304 2.62-.923 0-1.302-.98-1.302-2.62 0-1.636.38-2.615 1.302-2.615.928 0 1.304.979 1.304 2.615zm17.221-2.713c-.989 0-1.335.819-1.335 2.714 0 1.894.346 2.713 1.335 2.713.988 0 1.333-.819 1.333-2.713 0-1.895-.345-2.714-1.333-2.714zM81.68 11.78v1.252c0 .738-.164 1.175-.791 1.175-.379 0-.559-.276-.559-.614V9.178h2.025V7.893H80.33V4.909h-1.635c-.135 1.33-.562 2.984-2.211 2.984H73.91V4.909h-1.631c-.133 1.33-.563 2.984-2.21 2.984v1.285h1.104v4.03c0 1.638.94 2.44 2.636 2.44 1.984 0 2.77-.865 2.77-2.44V11.78h-1.314v1.252c0 .738-.167 1.175-.792 1.175-.383 0-.563-.276-.563-.614V9.178h3.683v4.03c0 1.638.936 2.44 2.636 2.44 1.977 0 2.771-.865 2.771-2.44V11.78h-1.32zm-23.982-.131c0 1.64-.376 2.62-1.305 2.62-.922 0-1.3-.98-1.3-2.62 0-1.636.378-2.615 1.3-2.615.93 0 1.305.979 1.305 2.615z" fill="#000"/></svg>
